X:1
T:Jervaulx Abbey, 88.88.88
T:Jervaulx Abbey, 88.88.88
T:French Psalter Melody, 1562
T:Public Domain Courtesy of the Cyber Hymnal™
C:French Psalter Melody, 1562
Z:Public Domain
Z:Courtesy of the Cyber Hymnal™
%%score ( 1 2 ) ( 3 4 )
L:1/8
M:4/4
K:D
V:1 treble 
V:2 treble 
V:3 bass 
V:4 bass 
V:1
 [A,D]4 | [FA]2 [DG]2 [DF]2 [CE]2 | [B,D]4 [CE]4 | [DF]4 [DF]4 | [DB]2 [DB]2 [EA]2 [DF]2 | %5
 A4 [EG]4 | [^DF]4 [=DA]4 | [EG]2 [DF]2 [CE]2 [DA]2 x | [DG]4 [DF]4 | E4 [A,D]4 | %10
 [DF]2 [EG]2 [FA]2 [FB]2 | [EA]2 [E^G]2 [CA]4 | [Dd]4 | [Ec]2 [DB]2 [EA]4 | F4 =C2 [B,G]2 [DA]2 | %15
 [DB]4 D4 | [DF]2 [DA]2 [CE]2 [EG]2 | F4 z2 C2 | [A,D]4 |] %19
V:2
 x4 | x8 | x8 | x8 | x8 | C2 D2 x4 | x8 | x9 | x8 | D2 C2 x4 | x8 | x8 | x4 | x8 | D2 x8 | x8 | %16
 x8 | E2 D2 E4 | x4 |] %19
V:3
 [D,F,]4 | [D,A,]2 [G,,B,]2 [D,A,]2 [A,,A,]2 | [B,,F,]4 [A,,A,]4 | [D,A,]4 [D,A,]4 | %4
 [G,,G,]2 [B,,F,]2 [C,E,]2 [D,A,]2 | [F,A,]4 [E,B,]4 | [B,,B,]4 [F,,F,A,]4 | %7
 [E,,E,B,]2 A,2 [G,,G,] [A,,A,]2 [F,,F,A,]2 | [G,,G,B,]4 [D,A,]4 | [A,,A,]4 [D,F,]4 | %10
 [B,,B,]2 [E,B,]2 [D,D]2 [B,,D]2 | [C,C]2 [E,B,]2 [A,,A,]4 | [F,,A,]4 | [A,,A,]2 [B,,F,]2 [C,E,]4 | %14
 [D,A,]4 [E,G,]2 [D,F,]2 x2 | [G,,G,]4 [F,,F,A,]4 | [B,,B,]2 [F,,A,]2 [A,,A,]2 [E,,E,B,]2 | %17
 [F,,F,A,]3 [G,,G,] A,2 A,2 | [D,F,]4 |] %19
V:4
 x4 | x8 | x8 | x8 | x8 | x8 | x8 | x2 [F,,F,] x6 | x8 | x8 | x8 | x8 | x4 | x8 | x10 | x8 | x8 | %17
 x4 A,,4 | x4 |] %19

